X: 1
T:Guns of the Magnificent Seven, The
M:4/4
L:1/8
C:Fintan McManus
R:reel
K:Ador
EA A/2A/2A ABcA|EAFA GEDG|EAAG ABcd|egdB BAAG:|
!|:ABcd eAA2|gedc B~G3|ABcd eaaf|1gedB BAAG:|2gedB BAA2|
!|:egdB A2eg|[M:3/4 L:1/8]dB GA B/2c/2d|[M:4/4 L:1/8]eBdB Aa2g|1eg dB BA
A2:|2eg dB BAAG||
